images/icons/PBS-logotype.svg

<?xml version="1.0" encoding="UTF-8" standalone="no"?>
<svg width="256px" height="256px" viewBox="0 0 256 256" version="1.1" xmlns="http://www.w3.org/2000/svg" xmlns:xlink="http://www.w3.org/1999/xlink">
    <!-- Generator: Sketch 39.1 (31720) - http://www.bohemiancoding.com/sketch -->
    <title>PBS-logotype</title>
    <desc>Created with Sketch.</desc>
    <defs></defs>
    <g id="Page-1" stroke="none" stroke-width="1" fill="none" fill-rule="evenodd">
        <g id="PBS-logotype">
            <g id="pbs_logo" transform="translate(12.000000, 63.000000)">
                <g>
                    <ellipse id="Oval" fill="#000000" cx="64.8699029" cy="64.8591133" rx="64.8699029" ry="64.8591133"></ellipse>
                    <path d="M71.5145631,28.71367 L51.9184466,28.71367 C35.8135922,28.71367 22.6368932,39.9739327 22.6368932,56.6391215 C22.6368932,70.6018473 31.0834951,80.6234811 43.6970874,82.5377258 L43.6970874,102.01798 L69.8252427,102.01798 L69.8252427,83.3259442 L73.4291262,83.3259442 C77.7087379,82.8755337 80.5242718,80.060468 80.6368932,76.119376 L80.6368932,65.3095238 L87.7320388,65.3095238 L71.5145631,28.71367 L71.5145631,28.71367 Z M66.3339806,60.129803 C62.8427184,60.129803 59.9145631,57.2021346 59.9145631,53.7114532 C59.9145631,50.2207718 62.8427184,47.2931034 66.3339806,47.2931034 C69.8252427,47.2931034 72.7533981,50.2207718 72.7533981,53.7114532 C72.7533981,57.3147373 69.9378641,60.129803 66.3339806,60.129803 L66.3339806,60.129803 Z M93.4757282,28.71367 L82.8893204,28.71367 L98.8815534,65.3095238 L91.561165,65.3095238 L91.561165,74.9933498 C91.561165,80.8486864 89.0834951,83.4385468 81.0873786,83.3259442 L81.0873786,102.01798 L91.561165,102.01798 L91.561165,83.3259442 L95.0524272,83.3259442 C98.0932039,83.4385468 102.260194,80.961289 102.260194,76.119376 L102.260194,65.3095238 L109.35534,65.3095238 L93.4757282,28.71367 L93.4757282,28.71367 Z" id="face" fill="#FFFFFF"></path>
                    <path d="M150.462136,52.9232348 L145.957282,52.9232348 L145.957282,47.2931034 L160.935922,47.2931034 C169.04466,47.2931034 173.662136,51.4594007 173.662136,57.990353 C173.662136,64.633908 168.819417,68.8002053 161.161165,68.8002053 L157.106796,68.8002053 L157.106796,77.2454023 L162.4,77.2454023 L162.4,82.8755337 L145.957282,82.8755337 L145.957282,77.2454023 L150.574757,77.2454023 L150.574757,52.9232348 L150.462136,52.9232348 Z M157.106796,63.1700739 L161.499029,63.1700739 C165.215534,63.1700739 167.242718,60.8054187 167.242718,57.990353 C167.242718,55.0626847 165.102913,52.8106322 161.499029,52.8106322 L157.106796,52.8106322 L157.106796,63.1700739 L157.106796,63.1700739 Z M180.081553,52.9232348 L176.027184,52.9232348 L176.027184,47.2931034 L190.330097,47.2931034 C199.227184,47.2931034 202.042718,52.5854269 202.042718,56.5265189 C202.042718,59.7919951 200.240777,62.4944581 197.763107,63.733087 C201.36699,65.1969212 203.394175,68.9128079 203.394175,72.1782841 C203.394175,79.9478654 197.312621,83.1007389 191.456311,83.1007389 L175.576699,83.1007389 L175.576699,77.4706076 L180.194175,77.4706076 L180.194175,52.9232348 L180.081553,52.9232348 Z M186.613592,77.3580049 L190.780583,77.3580049 C194.159223,77.3580049 196.524272,75.4437603 196.524272,72.2908867 C196.524272,69.5884236 194.72233,67.2237685 190.780583,67.2237685 L186.613592,67.2237685 L186.613592,77.3580049 L186.613592,77.3580049 Z M186.613592,61.5936371 L190.55534,61.5936371 C193.483495,61.5936371 195.51068,59.9045977 195.51068,57.2021346 C195.51068,54.6122742 193.596117,52.9232348 190.55534,52.9232348 L186.613592,52.9232348 L186.613592,61.5936371 L186.613592,61.5936371 Z M224.341748,52.8106322 C223.215534,52.3602217 221.638835,51.9098112 220.062136,51.9098112 C215.669903,51.9098112 214.318447,54.387069 214.318447,56.4139163 C214.318447,59.0037767 216.007767,59.7919951 218.034951,60.3550082 L221.864078,61.3684319 C226.481553,62.7196634 231.662136,64.4087028 231.662136,71.7278736 C231.662136,78.4840312 227.607767,83.3259442 218.598058,83.3259442 C215.106796,83.3259442 211.502913,82.8755337 207.335922,81.4116995 L207.335922,72.0656814 L213.867961,72.0656814 L213.867961,76.6823892 C215.557282,77.4706076 217.359223,77.5832102 219.161165,77.5832102 C222.990291,77.5832102 224.792233,75.5563629 224.792233,72.8538998 C224.792233,71.0522578 223.891262,69.7010263 219.61165,68.4623974 L216.120388,67.4489737 C209.58835,65.5347291 207.448544,62.7196634 207.448544,57.3147373 C207.448544,51.6846059 210.939806,46.7300903 219.836893,46.7300903 C223.666019,46.7300903 227.495146,47.4057061 230.198058,48.644335 L230.198058,57.089532 L224.229126,57.089532 L224.229126,52.8106322 L224.341748,52.8106322 Z" id="pbs" fill="#000000"></path>
                </g>
            </g>
        </g>
    </g>
</svg>

<svg width="256" height="256" viewBox="0 0 256 256" xmlns="http://www.w3.org/2000/svg"><title>PBS-logotype</title><g transform="translate(12 63)" fill="none" fill-rule="evenodd"><ellipse fill="#000" cx="64.87" cy="64.859" rx="64.87" ry="64.859"/><path d="M71.515 28.714H51.918c-16.104 0-29.281 11.26-29.281 27.925 0 13.963 8.446 23.984 21.06 25.899v19.48h26.128V83.326h3.604c4.28-.45 7.095-3.266 7.208-7.207V65.31h7.095L71.515 28.715zM66.334 60.13c-3.491 0-6.42-2.928-6.42-6.419 0-3.49 2.929-6.418 6.42-6.418s6.42 2.928 6.42 6.418c0 3.604-2.816 6.419-6.42 6.419zm27.142-31.416H82.889L98.882 65.31h-7.32v9.683c0 5.856-2.479 8.446-10.475 8.333v18.692h10.474V83.326h3.491c3.041.113 7.208-2.365 7.208-7.207V65.31h7.095l-15.88-36.595z" fill="#FFF"/><path d="M150.462 52.923h-4.505v-5.63h14.979c8.109 0 12.726 4.166 12.726 10.697 0 6.644-4.843 10.81-12.5 10.81h-4.055v8.445h5.293v5.63h-16.443v-5.63h4.618V52.923h-.113zm6.645 10.247h4.392c3.717 0 5.744-2.365 5.744-5.18 0-2.927-2.14-5.18-5.744-5.18h-4.392v10.36zm22.975-10.247h-4.055v-5.63h14.303c8.897 0 11.713 5.292 11.713 9.234 0 3.265-1.802 5.967-4.28 7.206 3.604 1.464 5.631 5.18 5.631 8.445 0 7.77-6.081 10.923-11.938 10.923h-15.88v-5.63h4.618V52.923h-.112zm6.532 24.435h4.167c3.378 0 5.743-1.914 5.743-5.067 0-2.703-1.802-5.067-5.743-5.067h-4.167v10.134zm0-15.764h3.941c2.928 0 4.956-1.69 4.956-4.392 0-2.59-1.915-4.279-4.956-4.279h-3.941v8.67zm37.728-8.783c-1.126-.45-2.703-.901-4.28-.901-4.392 0-5.744 2.477-5.744 4.504 0 2.59 1.69 3.378 3.717 3.941l3.83 1.013c4.617 1.352 9.797 3.04 9.797 10.36 0 6.756-4.054 11.598-13.064 11.598-3.491 0-7.095-.45-11.262-1.914v-9.346h6.532v4.616c1.69.789 3.491.901 5.293.901 3.83 0 5.631-2.027 5.631-4.73 0-1.8-.9-3.152-5.18-4.39l-3.492-1.014c-6.532-1.914-8.671-4.73-8.671-10.134 0-5.63 3.49-10.585 12.388-10.585 3.829 0 7.658.676 10.361 1.914v8.446h-5.969v-4.28h.113z" fill="#000"/></g></svg>
